public/svgs/insight/literature.svg

<svg width="400" height="160" viewBox="0 0 400 160" fill="none" xmlns="http://www.w3.org/2000/svg">
    <mask id="path-1-inside-1_910_2271" fill="white">
        <path fill-rule="evenodd" clip-rule="evenodd" d="M400 0H34L0 34V160H400V0Z"/>
    </mask>
    <path d="M34 0V-1H33.5858L33.2929 -0.707107L34 0ZM400 0H401V-1H400V0ZM0 34L-0.707107 33.2929L-1 33.5858V34H0ZM0 160H-1V161H0V160ZM400 160V161H401V160H400ZM34 1H400V-1H34V1ZM0.707107 34.7071L34.7071 0.707107L33.2929 -0.707107L-0.707107 33.2929L0.707107 34.7071ZM1 160V34H-1V160H1ZM400 159H0V161H400V159ZM399 0V160H401V0H399Z"
          fill="#222222" mask="url(#path-1-inside-1_910_2271)" stroke="none" stroke-opacity="0"/>
    <path class="stroke-none" d="M24.18 134.78H28.78V137H21.38V123.04H24.18V134.78ZM31.9797 124.6C31.4864 124.6 31.073 124.447 30.7397 124.14C30.4197 123.82 30.2597 123.427 30.2597 122.96C30.2597 122.493 30.4197 122.107 30.7397 121.8C31.073 121.48 31.4864 121.32 31.9797 121.32C32.473 121.32 32.8797 121.48 33.1997 121.8C33.533 122.107 33.6997 122.493 33.6997 122.96C33.6997 123.427 33.533 123.82 33.1997 124.14C32.8797 124.447 32.473 124.6 31.9797 124.6ZM33.3597 125.92V137H30.5597V125.92H33.3597ZM39.3861 128.22V133.58C39.3861 133.953 39.4728 134.227 39.6461 134.4C39.8328 134.56 40.1394 134.64 40.5661 134.64H41.8661V137H40.1061C37.7461 137 36.5661 135.853 36.5661 133.56V128.22H35.2461V125.92H36.5661V123.18H39.3861V125.92H41.8661V128.22H39.3861ZM54.18 131.22C54.18 131.62 54.1533 131.98 54.1 132.3H46C46.0667 133.1 46.3467 133.727 46.84 134.18C47.3333 134.633 47.94 134.86 48.66 134.86C49.7 134.86 50.44 134.413 50.88 133.52H53.9C53.58 134.587 52.9667 135.467 52.06 136.16C51.1533 136.84 50.04 137.18 48.72 137.18C47.6533 137.18 46.6933 136.947 45.84 136.48C45 136 44.34 135.327 43.86 134.46C43.3933 133.593 43.16 132.593 43.16 131.46C43.16 130.313 43.3933 129.307 43.86 128.44C44.3267 127.573 44.98 126.907 45.82 126.44C46.66 125.973 47.6267 125.74 48.72 125.74C49.7733 125.74 50.7133 125.967 51.54 126.42C52.38 126.873 53.0267 127.52 53.48 128.36C53.9467 129.187 54.18 130.14 54.18 131.22ZM51.28 130.42C51.2667 129.7 51.0067 129.127 50.5 128.7C49.9933 128.26 49.3733 128.04 48.64 128.04C47.9467 128.04 47.36 128.253 46.88 128.68C46.4133 129.093 46.1267 129.673 46.02 130.42H51.28ZM59.0238 127.64C59.3838 127.053 59.8504 126.593 60.4238 126.26C61.0104 125.927 61.6771 125.76 62.4238 125.76V128.7H61.6838C60.8038 128.7 60.1371 128.907 59.6838 129.32C59.2438 129.733 59.0238 130.453 59.0238 131.48V137H56.2238V125.92H59.0238V127.64ZM63.5897 131.42C63.5897 130.3 63.8097 129.307 64.2497 128.44C64.703 127.573 65.3097 126.907 66.0697 126.44C66.843 125.973 67.703 125.74 68.6497 125.74C69.4764 125.74 70.1964 125.907 70.8097 126.24C71.4364 126.573 71.9364 126.993 72.3097 127.5V125.92H75.1297V137H72.3097V135.38C71.9497 135.9 71.4497 136.333 70.8097 136.68C70.183 137.013 69.4564 137.18 68.6297 137.18C67.6964 137.18 66.843 136.94 66.0697 136.46C65.3097 135.98 64.703 135.307 64.2497 134.44C63.8097 133.56 63.5897 132.553 63.5897 131.42ZM72.3097 131.46C72.3097 130.78 72.1764 130.2 71.9097 129.72C71.643 129.227 71.283 128.853 70.8297 128.6C70.3764 128.333 69.8897 128.2 69.3697 128.2C68.8497 128.2 68.3697 128.327 67.9297 128.58C67.4897 128.833 67.1297 129.207 66.8497 129.7C66.583 130.18 66.4497 130.753 66.4497 131.42C66.4497 132.087 66.583 132.673 66.8497 133.18C67.1297 133.673 67.4897 134.053 67.9297 134.32C68.383 134.587 68.863 134.72 69.3697 134.72C69.8897 134.72 70.3764 134.593 70.8297 134.34C71.283 134.073 71.643 133.7 71.9097 133.22C72.1764 132.727 72.3097 132.14 72.3097 131.46ZM81.1244 128.22V133.58C81.1244 133.953 81.211 134.227 81.3844 134.4C81.571 134.56 81.8777 134.64 82.3044 134.64H83.6044V137H81.8444C79.4844 137 78.3044 135.853 78.3044 133.56V128.22H76.9844V125.92H78.3044V123.18H81.1244V125.92H83.6044V128.22H81.1244ZM96.0783 125.92V137H93.2583V135.6C92.8983 136.08 92.4249 136.46 91.8383 136.74C91.2649 137.007 90.6383 137.14 89.9583 137.14C89.0916 137.14 88.3249 136.96 87.6583 136.6C86.9916 136.227 86.4649 135.687 86.0783 134.98C85.7049 134.26 85.5183 133.407 85.5183 132.42V125.92H88.3183V132.02C88.3183 132.9 88.5383 133.58 88.9783 134.06C89.4183 134.527 90.0183 134.76 90.7783 134.76C91.5516 134.76 92.1583 134.527 92.5983 134.06C93.0383 133.58 93.2583 132.9 93.2583 132.02V125.92H96.0783ZM101.641 127.64C102.001 127.053 102.468 126.593 103.041 126.26C103.628 125.927 104.294 125.76 105.041 125.76V128.7H104.301C103.421 128.7 102.754 128.907 102.301 129.32C101.861 129.733 101.641 130.453 101.641 131.48V137H98.8409V125.92H101.641V127.64ZM117.227 131.22C117.227 131.62 117.2 131.98 117.147 132.3H109.047C109.114 133.1 109.394 133.727 109.887 134.18C110.38 134.633 110.987 134.86 111.707 134.86C112.747 134.86 113.487 134.413 113.927 133.52H116.947C116.627 134.587 116.014 135.467 115.107 136.16C114.2 136.84 113.087 137.18 111.767 137.18C110.7 137.18 109.74 136.947 108.887 136.48C108.047 136 107.387 135.327 106.907 134.46C106.44 133.593 106.207 132.593 106.207 131.46C106.207 130.313 106.44 129.307 106.907 128.44C107.374 127.573 108.027 126.907 108.867 126.44C109.707 125.973 110.674 125.74 111.767 125.74C112.82 125.74 113.76 125.967 114.587 126.42C115.427 126.873 116.074 127.52 116.527 128.36C116.994 129.187 117.227 130.14 117.227 131.22ZM114.327 130.42C114.314 129.7 114.054 129.127 113.547 128.7C113.04 128.26 112.42 128.04 111.687 128.04C110.994 128.04 110.407 128.253 109.927 128.68C109.46 129.093 109.174 129.673 109.067 130.42H114.327ZM131.236 137L128.156 131.56H126.836V137H124.036V123.04H129.276C130.356 123.04 131.276 123.233 132.036 123.62C132.796 123.993 133.363 124.507 133.736 125.16C134.123 125.8 134.316 126.52 134.316 127.32C134.316 128.24 134.05 129.073 133.516 129.82C132.983 130.553 132.19 131.06 131.136 131.34L134.476 137H131.236ZM126.836 129.46H129.176C129.936 129.46 130.503 129.28 130.876 128.92C131.25 128.547 131.436 128.033 131.436 127.38C131.436 126.74 131.25 126.247 130.876 125.9C130.503 125.54 129.936 125.36 129.176 125.36H126.836V129.46ZM147.149 131.22C147.149 131.62 147.122 131.98 147.069 132.3H138.969C139.035 133.1 139.315 133.727 139.809 134.18C140.302 134.633 140.909 134.86 141.629 134.86C142.669 134.86 143.409 134.413 143.849 133.52H146.869C146.549 134.587 145.935 135.467 145.029 136.16C144.122 136.84 143.009 137.18 141.689 137.18C140.622 137.18 139.662 136.947 138.809 136.48C137.969 136 137.309 135.327 136.829 134.46C136.362 133.593 136.129 132.593 136.129 131.46C136.129 130.313 136.362 129.307 136.829 128.44C137.295 127.573 137.949 126.907 138.789 126.44C139.629 125.973 140.595 125.74 141.689 125.74C142.742 125.74 143.682 125.967 144.509 126.42C145.349 126.873 145.995 127.52 146.449 128.36C146.915 129.187 147.149 130.14 147.149 131.22ZM144.249 130.42C144.235 129.7 143.975 129.127 143.469 128.7C142.962 128.26 142.342 128.04 141.609 128.04C140.915 128.04 140.329 128.253 139.849 128.68C139.382 129.093 139.095 129.673 138.989 130.42H144.249ZM153.813 134.42L156.613 125.92H159.593L155.493 137H152.093L148.013 125.92H151.013L153.813 134.42ZM162.585 124.6C162.092 124.6 161.678 124.447 161.345 124.14C161.025 123.82 160.865 123.427 160.865 122.96C160.865 122.493 161.025 122.107 161.345 121.8C161.678 121.48 162.092 121.32 162.585 121.32C163.078 121.32 163.485 121.48 163.805 121.8C164.138 122.107 164.305 122.493 164.305 122.96C164.305 123.427 164.138 123.82 163.805 124.14C163.485 124.447 163.078 124.6 162.585 124.6ZM163.965 125.92V137H161.165V125.92H163.965ZM177.032 131.22C177.032 131.62 177.005 131.98 176.952 132.3H168.852C168.918 133.1 169.198 133.727 169.692 134.18C170.185 134.633 170.792 134.86 171.512 134.86C172.552 134.86 173.292 134.413 173.732 133.52H176.752C176.432 134.587 175.818 135.467 174.912 136.16C174.005 136.84 172.892 137.18 171.572 137.18C170.505 137.18 169.545 136.947 168.692 136.48C167.852 136 167.192 135.327 166.712 134.46C166.245 133.593 166.012 132.593 166.012 131.46C166.012 130.313 166.245 129.307 166.712 128.44C167.178 127.573 167.832 126.907 168.672 126.44C169.512 125.973 170.478 125.74 171.572 125.74C172.625 125.74 173.565 125.967 174.392 126.42C175.232 126.873 175.878 127.52 176.332 128.36C176.798 129.187 177.032 130.14 177.032 131.22ZM174.132 130.42C174.118 129.7 173.858 129.127 173.352 128.7C172.845 128.26 172.225 128.04 171.492 128.04C170.798 128.04 170.212 128.253 169.732 128.68C169.265 129.093 168.978 129.673 168.872 130.42H174.132ZM194.435 125.92L191.195 137H188.175L186.155 129.26L184.135 137H181.095L177.835 125.92H180.675L182.635 134.36L184.755 125.92H187.715L189.795 134.34L191.755 125.92H194.435Z"
          fill="#222222" stroke="none" stroke-opacity="0"/>
    <rect x="293.643" y="48.6329" width="63" height="91" transform="rotate(-20.4291 293.643 48.6329)" stroke="#222222"
          stroke-dasharray="2 2"/>
    <rect x="308.169" y="36.9683" width="62" height="90" stroke="#222222" stroke-width="2"/>
    <path d="M334.169 51.9678L355.169 51.9678" stroke="#222222" stroke-dasharray="2 2"/>
    <path d="M317.169 51.9678H327.169" stroke="#222222" stroke-dasharray="2 2"/>
    <path d="M317.169 78.9678H327.169" stroke="#222222" stroke-dasharray="2 2"/>
    <path d="M317.169 61.9678H349.169" stroke="#222222" stroke-dasharray="2 2"/>
    <path d="M317.169 71.9678H339.169" stroke="#222222" stroke-dasharray="2 2"/>
    <path d="M361.169 88.9678H351.169" stroke="#222222" stroke-dasharray="2 2"/>
    <path d="M361.169 105.968H329.169" stroke="#222222" stroke-dasharray="2 2"/>
    <path d="M361.169 95.9678H339.169" stroke="#222222" stroke-dasharray="2 2"/>
</svg>

<svg xmlns="http://www.w3.org/2000/svg" width="400" height="160" fill="none" viewBox="0 0 400 160"><mask id="a" fill="#fff"><path fill-rule="evenodd" d="M400 0H34L0 34v126h400z" clip-rule="evenodd"/></mask><path fill="#222" d="M34 0v-1h-.414l-.293.293zm366 0h1v-1h-1zM0 34l-.707-.707-.293.293V34zm0 126h-1v1h1zm400 0v1h1v-1zM34 1h366v-2H34zM.707 34.707l34-34-1.414-1.414-34 34zM1 160V34h-2v126zm399-1H0v2h400zM399 0v160h2V0z" mask="url(#a)"/><path fill="#222" d="M24.18 134.78h4.6V137h-7.4v-13.96h2.8zm7.8-10.18q-.74 0-1.24-.46-.48-.48-.48-1.18t.48-1.16q.5-.48 1.24-.48t1.22.48q.5.46.5 1.16t-.5 1.18q-.48.46-1.22.46m1.38 1.32V137h-2.8v-11.08zm6.026 2.3v5.36q0 .56.26.82.28.24.92.24h1.3V137h-1.76q-3.54 0-3.54-3.44v-5.34h-1.32v-2.3h1.32v-2.74h2.82v2.74h2.48v2.3zm14.794 3q0 .6-.08 1.08H46q.1 1.2.84 1.88t1.82.68q1.56 0 2.22-1.34h3.02q-.48 1.6-1.84 2.64-1.36 1.02-3.34 1.02-1.6 0-2.88-.7a5.15 5.15 0 0 1-1.98-2.02q-.7-1.3-.7-3 0-1.72.7-3.02a4.9 4.9 0 0 1 1.96-2q1.26-.7 2.9-.7 1.58 0 2.82.68 1.26.68 1.94 1.94.7 1.24.7 2.86m-2.9-.8q-.02-1.08-.78-1.72-.76-.66-1.86-.66-1.04 0-1.76.64-.7.62-.86 1.74zm7.744-2.78a3.96 3.96 0 0 1 1.4-1.38q.88-.5 2-.5v2.94h-.74q-1.32 0-2 .62-.66.62-.66 2.16V137h-2.8v-11.08h2.8zm4.566 3.78q0-1.68.66-2.98.68-1.3 1.82-2a4.9 4.9 0 0 1 2.58-.7q1.239 0 2.16.5.939.5 1.5 1.26v-1.58h2.82V137h-2.82v-1.62q-.54.78-1.5 1.3-.94.5-2.18.5-1.4 0-2.56-.72-1.14-.72-1.82-2.02-.66-1.32-.66-3.02m8.72.04q0-1.02-.4-1.74a2.74 2.74 0 0 0-1.08-1.12q-.68-.4-1.46-.4t-1.44.38-1.08 1.12q-.4.72-.4 1.72t.4 1.76q.42.74 1.08 1.14.68.4 1.44.4.78 0 1.46-.38.68-.4 1.08-1.12.4-.74.4-1.76m8.814-3.24v5.36q0 .56.26.82.28.24.92.24h1.3V137h-1.76q-3.54 0-3.54-3.44v-5.34h-1.32v-2.3h1.32v-2.74h2.82v2.74h2.48v2.3zm14.954-2.3V137h-2.82v-1.4q-.54.72-1.42 1.14-.86.4-1.88.4-1.3 0-2.3-.54a4 4 0 0 1-1.58-1.62q-.56-1.08-.56-2.56v-6.5h2.8v6.1q0 1.32.66 2.04.66.7 1.8.7 1.16 0 1.82-.7.66-.72.66-2.04v-6.1zm5.563 1.72a3.96 3.96 0 0 1 1.4-1.38q.88-.5 2-.5v2.94h-.74q-1.32 0-2 .62-.66.62-.66 2.16V137h-2.8v-11.08h2.8zm15.586 3.58q0 .6-.08 1.08h-8.1q.1 1.2.84 1.88t1.82.68q1.56 0 2.22-1.34h3.02q-.48 1.6-1.84 2.64-1.36 1.02-3.34 1.02-1.6 0-2.88-.7a5.15 5.15 0 0 1-1.98-2.02q-.7-1.3-.7-3 0-1.72.7-3.02a4.9 4.9 0 0 1 1.96-2q1.26-.7 2.9-.7 1.58 0 2.82.68 1.26.68 1.94 1.94.7 1.24.7 2.86m-2.9-.8q-.02-1.08-.78-1.72-.76-.66-1.86-.66-1.04 0-1.76.64-.7.62-.86 1.74zm16.909 6.58-3.08-5.44h-1.32V137h-2.8v-13.96h5.24q1.62 0 2.76.58 1.14.56 1.7 1.54.58.96.58 2.16 0 1.38-.8 2.5-.8 1.1-2.38 1.52l3.34 5.66zm-4.4-7.54h2.34q1.14 0 1.7-.54.56-.56.56-1.54 0-.96-.56-1.48-.56-.54-1.7-.54h-2.34zm20.313 1.76q0 .6-.08 1.08h-8.1q.099 1.2.84 1.88.74.68 1.82.68 1.56 0 2.22-1.34h3.02q-.48 1.6-1.84 2.64-1.36 1.02-3.34 1.02-1.6 0-2.88-.7a5.15 5.15 0 0 1-1.98-2.02q-.7-1.3-.7-3 0-1.72.7-3.02a4.9 4.9 0 0 1 1.96-2q1.26-.7 2.9-.7 1.58 0 2.82.68 1.26.68 1.94 1.94.7 1.24.7 2.86m-2.9-.8q-.021-1.08-.78-1.72-.76-.66-1.86-.66-1.04 0-1.76.64-.7.62-.86 1.74zm9.564 4 2.8-8.5h2.98l-4.1 11.08h-3.4l-4.08-11.08h3zm8.772-9.82q-.74 0-1.24-.46-.48-.48-.48-1.18t.48-1.16q.5-.48 1.24-.48t1.22.48q.5.46.5 1.16t-.5 1.18q-.48.46-1.22.46m1.38 1.32V137h-2.8v-11.08zm13.067 5.3q0 .6-.08 1.08h-8.1q.099 1.2.84 1.88.74.68 1.82.68 1.56 0 2.22-1.34h3.02q-.48 1.6-1.84 2.64-1.36 1.02-3.34 1.02-1.6 0-2.88-.7a5.15 5.15 0 0 1-1.98-2.02q-.7-1.3-.7-3 0-1.72.7-3.02a4.9 4.9 0 0 1 1.96-2q1.26-.7 2.9-.7 1.58 0 2.82.68 1.26.68 1.94 1.94.7 1.24.7 2.86m-2.9-.8q-.021-1.08-.78-1.72-.76-.66-1.86-.66-1.04 0-1.76.64-.7.62-.86 1.74zm20.303-4.5-3.24 11.08h-3.02l-2.02-7.74-2.02 7.74h-3.04l-3.26-11.08h2.84l1.96 8.44 2.12-8.44h2.96l2.08 8.42 1.96-8.42z" class="stroke-none"/><path stroke="#222" stroke-dasharray="2 2" d="m293.643 48.633 59.038-21.99 31.763 85.277-59.038 21.99z"/><path stroke="#222" stroke-width="2" d="M308.169 36.968h62v90h-62z"/><path stroke="#222" stroke-dasharray="2 2" d="M334.169 51.968h21M317.169 51.968h10M317.169 78.968h10M317.169 61.968h32M317.169 71.968h22M361.169 88.968h-10M361.169 105.968h-32M361.169 95.968h-22"/></svg>
